packages/core/src/svgs/tokens/mono/DMTR.svg

<svg width="24" height="24" viewBox="0 0 24 24" fill="none" xmlns="http://www.w3.org/2000/svg">
<path d="M12.61 4.6C14.95 4.6 17.0449 5.71 18.4099 7.45C17.7118 6.3951 16.7644 5.52848 15.6516 4.92675C14.5388 4.32502 13.295 4.00673 12.03 4C7.73498 4 4 7.57999 4 12C4 13.335 4.315 14.595 4.87999 15.7C5.105 15.635 5.33499 15.57 5.55499 15.515C5.06284 14.4107 4.83186 13.208 4.87999 12C5.02999 7.88499 8.57999 4.6 12.61 4.6ZM12.025 20C12.1234 20.0002 12.2217 19.9986 12.32 19.9949C9.76997 19.895 7.31999 18.475 6.04999 16.375C7.87999 16.055 10.75 15.9999 11.9999 15.9999C13.065 15.9999 15.4349 16.02 17.06 16.27C17.205 16.08 17.335 15.885 17.4599 15.68C16.335 15.39 15.16 15.19 13.9599 15.0849C13.7499 14.82 13.6149 14.2499 13.6799 13.7C13.7149 13.4 13.7499 13.24 13.76 13.35C13.7849 13.7 14.355 13.005 14.465 12.49C14.5599 12.055 14.8699 11.6 15.075 11.6C15.135 11.6 15.2949 11.54 15.4299 11.465C15.565 11.39 15.79 11.3 15.93 11.265C16.265 11.18 16.3449 10.915 16.12 10.66C15.795 10.285 15.7799 10.195 16.015 9.94495L16.2349 9.69995H15.9C15.72 9.69505 15.485 9.63 15.38 9.55C15.1499 9.36999 14.965 9.36499 14.645 9.53999C13.9599 9.91496 12.11 10.14 9.63499 10.14L9.46999 10.145C7.47999 10.145 7.13499 10.15 6.96999 11.25C6.91999 11.585 6.90999 11.92 6.895 12.25L6.86499 12.8499C6.70499 13.24 6.625 13.5499 6.685 13.8999C6.695 13.95 6.71499 13.995 6.73499 14.035C6.75499 14.085 6.77999 14.135 6.78499 14.2L6.77499 14.435C6.765 14.5299 6.75999 14.5999 6.78499 14.5999C6.98499 14.5999 7.12499 13.1999 6.975 12.8499V12.7C6.975 12.375 6.96999 11.875 7.09999 11.74C7.13998 11.7 7.16999 11.81 7.16999 11.99C7.16999 12.165 7.23999 12.445 7.32499 12.615C7.44999 12.865 7.45498 12.975 7.36499 13.205C7.23499 13.44 7.27998 13.8649 7.32499 14.28L7.36499 14.745C7.36999 14.925 7.33499 15.085 7.29999 15.21V15.2299C7.30999 15.305 7.38498 15.305 7.43999 15.31C7.46499 15.31 7.48998 15.31 7.49499 15.32C7.54499 15.35 7.55998 15.4049 7.54499 15.45C5.54 15.8599 3.67 16.545 2 17.45C3.11282 17.0693 4.24837 16.7587 5.4 16.52C6.13647 17.5978 7.12594 18.4786 8.28179 19.0853C9.43764 19.692 10.7247 20.006 12.03 20H12.025ZM8.83498 15.225C8.52998 15.27 8.22499 15.32 7.92499 15.375C7.805 15.28 7.76499 15.0549 7.71999 14.745C7.66999 14.395 7.70999 14.2499 8.01999 13.72C8.37999 13.09 8.57498 12.93 8.28999 13.495C8.13999 13.7949 8.13999 13.825 8.42999 14.345C8.58999 14.6349 8.72499 14.945 8.72499 15.03C8.72499 15.11 8.77498 15.1949 8.83498 15.225ZM12.6 15.01C11.5213 14.982 10.4419 15.0304 9.36998 15.155C9.20999 15.035 9.09499 14.79 8.96999 14.505C8.83999 14.205 8.81998 14.02 8.87998 13.73C8.92498 13.52 8.95499 13.295 8.94998 13.225C8.93998 13.0599 8.96999 13.005 9.66999 13.26C9.92001 13.35 10.225 13.51 10.34 13.6199C10.49 13.7599 10.57 13.78 10.62 13.695C10.8449 13.325 12.23 13.045 12.61 13.3C12.7349 13.385 12.73 13.4 12.585 13.4C12.495 13.4 12.435 13.455 12.465 13.525C12.4899 13.595 12.5249 13.975 12.545 14.365C12.545 14.365 12.365 14.715 12.46 14.75C12.61 14.8 12.61 14.93 12.6 15.01ZM13.43 15.045L13.065 15.025C12.89 14.8449 12.845 14.36 12.965 13.8999C13.03 13.66 13.04 13.665 13.1949 14.05C13.285 14.27 13.385 14.62 13.415 14.825C13.43 14.9149 13.4349 14.99 13.43 15.045ZM22 17.445C20.9812 17.1206 19.9466 16.8487 18.8999 16.6299C18.9999 16.5 19.16 16.195 19.16 16.195C20.1599 16.545 21.11 16.965 22 17.445ZM19.225 12.1C19.225 15.9649 15.8549 19.1 12.075 19.1C10.065 19.1 8.25499 18.215 7 16.8L7.04499 16.95C7.70757 17.7759 8.54698 18.4429 9.50144 18.9015C10.4559 19.3602 11.5011 19.5987 12.5599 19.6C16.5 19.6 20 16.3499 20 12.35L19.995 12.1C19.905 9.46999 18.135 7.2 16 6C14.92 5.395 13.235 5.5 12.355 5.69999C13.255 5.87499 13.78 6.58 14.355 7.345C14.7643 7.95798 15.271 8.50009 15.8549 8.94999C16.57 9.44999 17.755 9.42999 17.795 9.14999C17.855 8.73999 17.165 7.84999 16.4849 7.29999C16.085 6.97 15.35 6.675 14.955 6.515C14.8049 6.455 14.705 6.415 14.69 6.39999C15.63 6.55 16.39 6.78499 17.09 7.45C18.26 8.57499 19.225 10.1899 19.225 12.1Z" fill="white"/>
</svg>

<svg xmlns="http://www.w3.org/2000/svg" width="24" height="24" fill="none" viewBox="0 0 24 24">
    <path fill="#fff" d="M12.61 4.6c2.34 0 4.435 1.11 5.8 2.85A7.7 7.7 0 0 0 12.03 4C7.735 4 4 7.58 4 12c0 1.335.315 2.595.88 3.7.225-.065.455-.13.675-.185A7.9 7.9 0 0 1 4.88 12c.15-4.115 3.7-7.4 7.73-7.4M12.025 20q.147 0 .295-.005c-2.55-.1-5-1.52-6.27-3.62C7.88 16.055 10.75 16 12 16c1.065 0 3.435.02 5.06.27.145-.19.275-.385.4-.59-1.125-.29-2.3-.49-3.5-.595-.21-.265-.345-.835-.28-1.385.035-.3.07-.46.08-.35.025.35.595-.345.705-.86.095-.435.405-.89.61-.89.06 0 .22-.06.355-.135s.36-.165.5-.2c.335-.085.415-.35.19-.605-.325-.375-.34-.465-.105-.715l.22-.245H15.9c-.18-.005-.415-.07-.52-.15-.23-.18-.415-.185-.735-.01-.685.375-2.535.6-5.01.6l-.165.005c-1.99 0-2.335.005-2.5 1.105-.05.335-.06.67-.075 1l-.03.6c-.16.39-.24.7-.18 1.05.01.05.03.095.05.135.02.05.045.1.05.165l-.01.235c-.01.095-.015.165.01.165.2 0 .34-1.4.19-1.75v-.15c0-.325-.005-.825.125-.96.04-.04.07.07.07.25 0 .175.07.455.155.625.125.25.13.36.04.59-.13.235-.085.66-.04 1.075l.04.465c.005.18-.03.34-.065.465v.02c.01.075.085.075.14.08.025 0 .05 0 .055.01.05.03.065.085.05.13a20.1 20.1 0 0 0-5.545 2 28 28 0 0 1 3.4-.93A7.99 7.99 0 0 0 12.03 20zm-3.19-4.775q-.459.068-.91.15c-.12-.095-.16-.32-.205-.63-.05-.35-.01-.495.3-1.025.36-.63.555-.79.27-.225-.15.3-.15.33.14.85.16.29.295.6.295.685 0 .08.05.165.11.195m3.765-.215a23 23 0 0 0-3.23.145c-.16-.12-.275-.365-.4-.65-.13-.3-.15-.485-.09-.775.045-.21.075-.435.07-.505-.01-.165.02-.22.72.035.25.09.555.25.67.36.15.14.23.16.28.075.225-.37 1.61-.65 1.99-.395.125.085.12.1-.025.1-.09 0-.15.055-.12.125.025.07.06.45.08.84 0 0-.18.35-.085.385.15.05.15.18.14.26m.83.035-.365-.02c-.175-.18-.22-.665-.1-1.125.065-.24.075-.235.23.15.09.22.19.57.22.775q.022.136.015.22m8.57 2.4a31 31 0 0 0-3.1-.815c.1-.13.26-.435.26-.435 1 .35 1.95.77 2.84 1.25M19.225 12.1c0 3.865-3.37 7-7.15 7-2.01 0-3.82-.885-5.075-2.3l.045.15a7.08 7.08 0 0 0 5.515 2.65c3.94 0 7.44-3.25 7.44-7.25l-.005-.25C19.905 9.47 18.135 7.2 16 6c-1.08-.605-2.765-.5-3.645-.3.9.175 1.425.88 2 1.645.41.613.916 1.155 1.5 1.605.715.5 1.9.48 1.94.2.06-.41-.63-1.3-1.31-1.85-.4-.33-1.135-.625-1.53-.785-.15-.06-.25-.1-.265-.115.94.15 1.7.385 2.4 1.05 1.17 1.125 2.135 2.74 2.135 4.65"/>
</svg>
